flaticon/emoticons/flirt-2.svg

<svg xmlns="http://www.w3.org/2000/svg" width="32" height="32" viewBox="0 0 24 24">
    <path d="M17.535156 15.605469C17.179688 15.605469 16.84375 15.738281 16.582031 15.964844 16.332031 15.734375 16.003906 15.605469 15.648438 15.605469 14.902344 15.605469 14.285156 16.203125 14.207031 16.996094 14.195312 17.078125 14.179688 17.261719 14.246094 17.539062 14.351562 17.957031 14.582031 18.332031 14.921875 18.628906L16.316406 19.851562C16.390625 19.917969 16.484375 19.949219 16.578125 19.949219 16.671875 19.949219 16.765625 19.917969 16.839844 19.851562L18.257812 18.628906C18.597656 18.332031 18.832031 17.957031 18.933594 17.539062 19 17.261719 18.988281 17.078125 18.976562 16.996094 18.898438 16.203125 18.28125 15.605469 17.535156 15.605469zM18.15625 17.347656C18.09375 17.605469 17.949219 17.839844 17.734375 18.027344L16.582031 19.019531 15.449219 18.027344C15.234375 17.839844 15.089844 17.605469 15.027344 17.347656 14.992188 17.207031 14.996094 17.125 14.996094 17.125 14.996094 17.113281 15 17.097656 15 17.085938 15.03125 16.746094 15.265625 16.40625 15.648438 16.40625 15.894531 16.40625 16.105469 16.550781 16.210938 16.789062 16.277344 16.9375 16.421875 17.03125 16.578125 17.03125 16.738281 17.03125 16.882812 16.9375 16.945312 16.792969 17.046875 16.554688 17.28125 16.40625 17.535156 16.40625 17.917969 16.40625 18.148438 16.746094 18.183594 17.113281 18.183594 17.113281 18.195312 17.195312 18.15625 17.347656zM10.308594 13.484375C10.460938 13.433594 10.566406 13.292969 10.578125 13.132812 10.675781 11.59375 9.363281 10.101562 7.824219 10.003906 7.609375 9.992188 7.414062 10.15625 7.398438 10.378906 7.386719 10.597656 7.554688 10.789062 7.773438 10.804688 8.566406 10.855469 9.296875 11.441406 9.613281 12.179688 8.625 11.695312 7.402344 11.820312 6.527344 12.589844 6.359375 12.738281 6.34375 12.988281 6.488281 13.15625 6.636719 13.320312 6.890625 13.335938 7.054688 13.191406 7.457031 12.839844 7.972656 12.660156 8.503906 12.695312 9.039062 12.730469 9.527344 12.96875 9.878906 13.371094 9.957031 13.457031 10.066406 13.507812 10.179688 13.507812 10.222656 13.507812 10.265625 13.5 10.308594 13.484375zM12.019531 16.003906C11.613281 16.003906 11.230469 16.1875 10.96875 16.5 10.828125 16.671875 10.851562 16.921875 11.023438 17.0625 11.191406 17.207031 11.445312 17.179688 11.585938 17.011719 11.691406 16.878906 11.851562 16.804688 12.019531 16.804688 12.332031 16.804688 12.585938 17.058594 12.585938 17.371094 12.585938 17.679688 12.332031 17.933594 12.019531 17.933594 11.886719 17.933594 11.761719 17.890625 11.660156 17.804688 11.492188 17.664062 11.238281 17.6875 11.097656 17.859375 10.957031 18.027344 10.980469 18.28125 11.152344 18.421875 11.300781 18.546875 11.480469 18.628906 11.664062 18.679688 11.703125 18.710938 11.734375 18.738281 11.765625 18.773438 11.957031 19.019531 11.910156 19.375 11.667969 19.566406 11.421875 19.757812 11.066406 19.714844 10.875 19.46875 10.792969 19.363281 10.75 19.238281 10.753906 19.105469 10.761719 18.886719 10.585938 18.703125 10.367188 18.695312 10.363281 18.695312 10.359375 18.695312 10.355469 18.695312 10.140625 18.695312 9.960938 18.867188 9.957031 19.082031 9.945312 19.398438 10.046875 19.710938 10.242188 19.960938 10.511719 20.304688 10.914062 20.484375 11.320312 20.484375 11.613281 20.484375 11.910156 20.394531 12.15625 20.199219 12.648438 19.816406 12.800781 19.164062 12.578125 18.613281 13.050781 18.398438 13.382812 17.921875 13.382812 17.371094 13.382812 16.617188 12.773438 16.003906 12.019531 16.003906zM12.019531 16.003906"/>
    <path d="M 22.515625 7.539062 C 22.289062 5.90625 21.585938 4.496094 20.585938 3.671875 C 20.328125 3.457031 20.140625 3.125 20.023438 2.679688 C 19.695312 1.394531 18.484375 0.496094 16.945312 0.390625 C 16.089844 0.332031 15.347656 0.597656 14.535156 0.925781 C 14.503906 0.9375 14.472656 0.9375 14.421875 0.90625 C 14.257812 0.460938 13.878906 0.15625 13.359375 0.046875 C 12.15625 -0.207031 10.304688 0.570312 8.816406 1.925781 C 8.820312 1.570312 8.894531 1.25 9.09375 1.148438 L 9.769531 0.8125 L 9.113281 0.441406 C 8.414062 0.0507812 6.738281 -0.371094 5.375 0.820312 C 4.882812 1.253906 4.519531 1.859375 4.335938 2.570312 C 4.296875 2.71875 4.261719 2.875 4.226562 3.027344 C 4.210938 3.09375 4.15625 3.113281 4.132812 3.121094 C 4.089844 3.128906 4.054688 3.121094 4.015625 3.070312 C 3.800781 2.8125 3.476562 2.683594 3.144531 2.730469 C 2.828125 2.773438 2.558594 2.976562 2.433594 3.273438 C 1.644531 5.101562 0.171875 9.753906 3.3125 13.734375 L 3.3125 20.398438 C 3.3125 21.5 4.210938 22.398438 5.3125 22.398438 L 6.515625 22.398438 L 6.515625 23.078125 C 6.515625 23.585938 6.929688 24 7.4375 24 L 16.796875 24 C 17.304688 24 17.71875 23.585938 17.71875 23.078125 L 17.71875 22.398438 L 18.917969 22.398438 C 20.023438 22.398438 20.917969 21.5 20.917969 20.398438 L 20.917969 13.753906 C 21.386719 13.226562 23.007812 11.109375 22.515625 7.539062 Z M 3.167969 3.589844 C 3.175781 3.574219 3.191406 3.53125 3.257812 3.519531 C 3.277344 3.519531 3.34375 3.515625 3.414062 3.601562 C 3.636719 3.867188 3.984375 3.980469 4.320312 3.898438 C 4.667969 3.816406 4.929688 3.546875 5.007812 3.203125 C 5.039062 3.058594 5.074219 2.910156 5.113281 2.773438 C 5.257812 2.21875 5.53125 1.75 5.902344 1.421875 C 6.742188 0.6875 7.671875 0.785156 8.226562 0.945312 C 8.023438 1.324219 7.964844 1.859375 8.058594 2.511719 C 8.085938 2.726562 8.234375 2.902344 8.441406 2.972656 C 8.648438 3.039062 8.875 2.984375 9.03125 2.828125 C 10.554688 1.28125 12.3125 0.644531 13.191406 0.832031 C 13.570312 0.910156 13.648438 1.121094 13.671875 1.1875 C 13.753906 1.398438 13.914062 1.566406 14.125 1.65625 C 14.347656 1.753906 14.605469 1.757812 14.832031 1.667969 C 15.578125 1.371094 16.207031 1.144531 16.890625 1.191406 C 17.835938 1.257812 18.953125 1.734375 19.25 2.878906 C 19.40625 3.492188 19.6875 3.964844 20.078125 4.289062 C 20.476562 4.621094 21.441406 5.609375 21.722656 7.648438 C 22.03125 9.871094 21.445312 11.457031 20.917969 12.375 L 20.917969 6.894531 L 20.316406 7.25 C 19.332031 7.828125 18.476562 8.003906 17.761719 7.773438 C 17.652344 7.738281 17.546875 7.695312 17.453125 7.644531 C 17.429688 7.632812 17.410156 7.617188 17.386719 7.601562 C 17.316406 7.5625 17.25 7.523438 17.1875 7.476562 C 17.167969 7.460938 17.152344 7.445312 17.128906 7.429688 C 17.074219 7.382812 17.015625 7.335938 16.96875 7.292969 C 16.945312 7.269531 16.929688 7.25 16.910156 7.230469 C 16.871094 7.1875 16.828125 7.144531 16.792969 7.101562 C 16.769531 7.078125 16.757812 7.054688 16.738281 7.03125 C 16.710938 6.996094 16.679688 6.957031 16.65625 6.925781 C 16.640625 6.898438 16.628906 6.882812 16.613281 6.859375 C 16.597656 6.832031 16.574219 6.800781 16.5625 6.777344 C 16.550781 6.761719 16.550781 6.753906 16.542969 6.742188 C 16.507812 6.679688 16.484375 6.636719 16.484375 6.636719 L 16.398438 6.433594 L 16.179688 6.398438 C 12.339844 5.808594 10.472656 7.414062 9.949219 7.976562 C 7.160156 7.671875 5.953125 6.871094 5.941406 6.863281 L 5.644531 6.660156 L 5.410156 6.933594 C 5.253906 7.113281 5.09375 7.273438 4.929688 7.414062 C 4.441406 7.832031 3.945312 8.070312 3.574219 8.207031 L 3.3125 8.304688 L 3.3125 12.332031 C 1.351562 9.058594 2.339844 5.515625 3.167969 3.589844 Z M 16.917969 23.078125 C 16.917969 23.144531 16.863281 23.199219 16.796875 23.199219 L 7.4375 23.199219 C 7.367188 23.199219 7.3125 23.144531 7.3125 23.078125 L 7.3125 22.398438 L 16.917969 22.398438 Z M 20.117188 20.398438 C 20.117188 21.058594 19.582031 21.597656 18.917969 21.597656 L 5.3125 21.597656 C 4.652344 21.597656 4.113281 21.058594 4.113281 20.398438 L 4.113281 8.855469 C 4.605469 8.640625 5.222656 8.285156 5.792969 7.699219 C 6.355469 7.992188 7.714844 8.5625 10.078125 8.792969 L 10.300781 8.8125 L 10.4375 8.632812 C 10.5 8.550781 11.992188 6.636719 15.859375 7.160156 C 16.066406 7.515625 16.578125 8.230469 17.503906 8.53125 C 18.285156 8.789062 19.164062 8.695312 20.117188 8.253906 Z M 20.117188 20.398438"/>
    <path d="M 18.1875 12.003906 C 18.1875 10.460938 16.929688 9.203125 15.386719 9.203125 C 13.839844 9.203125 12.585938 10.460938 12.585938 12.003906 C 12.585938 13.546875 13.839844 14.804688 15.386719 14.804688 C 16.929688 14.804688 18.1875 13.546875 18.1875 12.003906 Z M 13.382812 12.003906 C 13.382812 10.902344 14.28125 10.003906 15.386719 10.003906 C 16.488281 10.003906 17.386719 10.902344 17.386719 12.003906 C 17.386719 13.105469 16.488281 14.003906 15.386719 14.003906 C 14.28125 14.003906 13.382812 13.105469 13.382812 12.003906 Z M 13.382812 12.003906"/>
    <path d="M 16.183594 12.003906 C 16.183594 12.445312 15.828125 12.804688 15.386719 12.804688 C 14.941406 12.804688 14.585938 12.445312 14.585938 12.003906 C 14.585938 11.5625 14.941406 11.203125 15.386719 11.203125 C 15.828125 11.203125 16.183594 11.5625 16.183594 12.003906 Z M 16.183594 12.003906"/>
</svg>

<svg xmlns="http://www.w3.org/2000/svg" width="32" height="32" viewBox="0 0 24 24">
    <path d="M17.535 15.605c-.355 0-.691.133-.953.36-.25-.23-.578-.36-.934-.36-.746 0-1.363.598-1.441 1.391-.012.082-.027.266.04.543.105.418.335.793.675 1.09l1.394 1.223a.39.39 0 0 0 .262.097.39.39 0 0 0 .262-.097l1.418-1.223c.34-.297.574-.672.676-1.09.066-.277.054-.46.043-.543-.079-.793-.696-1.39-1.442-1.39zm.621 1.743a1.312 1.312 0 0 1-.422.68l-1.152.992-1.133-.993a1.312 1.312 0 0 1-.422-.68c-.035-.14-.03-.222-.03-.222l.003-.04c.031-.339.266-.679.648-.679a.61.61 0 0 1 .563.383c.066.148.21.242.367.242.16 0 .305-.093.367-.238a.64.64 0 0 1 .59-.387c.383 0 .613.34.649.707 0 0 .011.082-.028.235zm0 0M10.309 13.484a.4.4 0 0 0 .27-.351c.097-1.54-1.216-3.031-2.755-3.13a.407.407 0 0 0-.426.376.407.407 0 0 0 .375.426c.793.05 1.524.636 1.84 1.375a2.804 2.804 0 0 0-3.086.41.402.402 0 0 0-.039.566c.149.164.403.18.567.035a1.995 1.995 0 0 1 1.449-.496 1.983 1.983 0 0 1 1.375.676.41.41 0 0 0 .3.137.375.375 0 0 0 .13-.024zm0 0M12.02 16.004c-.407 0-.79.183-1.051.496a.398.398 0 0 0 .054.563.398.398 0 0 0 .563-.051.552.552 0 0 1 .434-.207c.312 0 .566.254.566.566a.566.566 0 0 1-.926.434.398.398 0 0 0-.562.054.398.398 0 0 0 .054.563c.149.125.328.207.512.258a.78.78 0 0 1 .102.093.565.565 0 1 1-1.012.332.4.4 0 0 0-.387-.41h-.012a.398.398 0 0 0-.398.387c-.012.316.09.629.285.879.27.344.672.523 1.078.523.293 0 .59-.09.836-.285a1.36 1.36 0 0 0 .422-1.586 1.365 1.365 0 0 0-.559-2.61zm0 0"/>
    <path d="M22.516 7.54c-.227-1.634-.93-3.044-1.93-3.868-.258-.215-.445-.547-.563-.992-.328-1.285-1.539-2.184-3.078-2.29-.855-.058-1.597.208-2.41.536-.031.011-.062.011-.113-.02-.164-.445-.543-.75-1.063-.86-1.203-.253-3.054.524-4.543 1.88.004-.356.079-.676.278-.778L9.77.813 9.113.44c-.699-.39-2.375-.812-3.738.38-.492.433-.855 1.038-1.04 1.75-.038.148-.073.304-.108.456-.016.067-.07.086-.094.094-.043.008-.078 0-.117-.05a.954.954 0 0 0-.871-.34.899.899 0 0 0-.711.542c-.79 1.829-2.262 6.48.878 10.461v6.664c0 1.102.899 2 2 2h1.204v.68c0 .508.414.922.921.922h9.36a.924.924 0 0 0 .922-.922v-.68h1.199c1.105 0 2-.898 2-2v-6.644c.469-.527 2.09-2.645 1.598-6.215zM3.168 3.59c.008-.016.023-.059.09-.07.02 0 .086-.004.156.082.223.265.57.378.906.296a.919.919 0 0 0 .688-.695c.031-.144.066-.293.105-.43.145-.554.418-1.023.79-1.351.84-.734 1.769-.637 2.324-.477-.204.38-.262.914-.168 1.567.027.215.175.39.382.46a.581.581 0 0 0 .59-.144c1.524-1.547 3.281-2.183 4.16-1.996.38.078.457.29.48.356.083.21.243.378.454.468.223.098.48.102.707.012.746-.297 1.375-.523 2.059-.477.945.067 2.062.543 2.359 1.688.156.613.438 1.086.828 1.41.399.332 1.363 1.32 1.645 3.36.308 2.222-.278 3.808-.805 4.726v-5.48l-.602.355c-.984.578-1.84.754-2.554.523a1.827 1.827 0 0 1-.309-.128c-.023-.012-.043-.028-.066-.043a1.714 1.714 0 0 1-.2-.125c-.019-.016-.035-.032-.058-.047-.055-.047-.113-.094-.16-.137-.024-.023-.04-.043-.059-.063-.039-.043-.082-.085-.117-.128-.023-.024-.035-.047-.055-.07l-.082-.106c-.015-.028-.027-.043-.043-.067-.015-.027-.039-.058-.05-.082-.012-.015-.012-.023-.02-.035l-.059-.105-.086-.203-.218-.036c-3.84-.59-5.707 1.016-6.23 1.579C7.16 7.672 5.952 6.87 5.94 6.863l-.296-.203-.235.274a4.453 4.453 0 0 1-1.836 1.273l-.261.098v4.027C1.351 9.059 2.34 5.516 3.167 3.59zm13.75 19.488a.122.122 0 0 1-.121.121h-9.36a.123.123 0 0 1-.125-.12v-.68h9.606zm3.2-2.68a1.2 1.2 0 0 1-1.2 1.2H5.313c-.66 0-1.2-.54-1.2-1.2V8.855A5.299 5.299 0 0 0 5.793 7.7c.562.293 1.922.864 4.285 1.094l.223.02.136-.18c.063-.082 1.555-1.996 5.422-1.473.207.356.72 1.07 1.645 1.371.781.258 1.66.164 2.613-.277zm0 0"/>
    <path d="M18.188 12.004c0-1.543-1.258-2.8-2.801-2.8a2.803 2.803 0 0 0-2.801 2.8c0 1.543 1.254 2.8 2.8 2.8 1.544 0 2.802-1.257 2.802-2.8zm-4.805 0c0-1.102.898-2 2.004-2 1.101 0 2 .898 2 2 0 1.101-.899 2-2 2a2.005 2.005 0 0 1-2.004-2zm0 0"/>
    <path d="M16.184 12.004a.799.799 0 1 1-1.598 0 .8.8 0 1 1 1.598 0zm0 0"/>
</svg>
